X:2
T:Le maitre de maison
R:Branle
C:Trad.
A:Lorraine
O:France
Z:Transcrit et/ou corrig par Michel BELLON - 2006-06-06
Z:Pour toute observation mailto:galouvielle@free.fr
M:2/4
L:1/8
Q:1/4=105
K:C
A|Ae ed|e2c2|e2dc|B3A|Ae ed|e2c2|e2dc|B3c/2B/2|\
